icons/wasm.svg

<svg width="16" height="16" viewBox="0 0 16 16" fill="none" xmlns="http://www.w3.org/2000/svg">
<path fill-rule="evenodd" clip-rule="evenodd" d="M2 2H6C6 3.10457 6.89543 4 8 4C9.10457 4 10 3.10457 10 2H14V14H2V2ZM8.141 12L8.841 7.149H7.798L7.322 11.153L6.79 7.149H5.628L5.061 11.153L4.648 7.149H3.563L4.242 12H5.663L6.195 8.262L6.685 12H8.141ZM11.4132 10.943L11.6302 12H12.7852L11.4832 7.149H10.1392L8.83023 12H9.96423L10.1812 10.943H11.4132ZM10.7972 7.968L11.2452 10.138H10.3492L10.7972 7.968Z" fill="#7764FC"/>
</svg>

<svg xmlns="http://www.w3.org/2000/svg" width="16" height="16" fill="none"><path fill="#7764FC" fill-rule="evenodd" d="M2 2h4a2 2 0 1 0 4 0h4v12H2V2Zm6.141 10 .7-4.851H7.798l-.476 4.004-.532-4.004H5.628l-.567 4.004-.413-4.004H3.563L4.242 12h1.421l.532-3.738.49 3.738h1.456Zm3.272-1.057L11.63 12h1.155l-1.302-4.851H10.14L8.83 12h1.134l.217-1.057h1.232Zm-.616-2.975.448 2.17h-.896l.448-2.17Z" clip-rule="evenodd"/></svg>
